X:25
T:The Rakes of Kildare     Jig     Allan's #25
C:Trad/Anon. Irish
B:Allan's Irish Fiddler (pub. Mozart Allen,  Glascow) date unknown
Z:FROM ALLAN'S TO NOTEWORTHY, FROM NOTEWORTHY TO ABC, MIDI AND .TXT BY VINCE
BRENNAN Dec. 2002 (HTTP://WWW.SOSYOURMOM.COM)
I:abc2nwc
M:6/8
L:1/8
K:C
A|EAA AGA|Bcde2^f|g^fg ege|dBGG2A|
EAA AGA|Bcde2^f|g^fg edB|A3A2:|
|:a|aea aea|aea b2a|g^fg ege|
[1dBG G2a|aea aea|aea b2a|g^fe dBG|A3A2:|
[2dBG G2A|EAA AGA|Bcde2^f|g^fg edB|A3A2|]
